X:1
T:Cling to the Bible
T:Cling to the Bible
T:William Howard Doane
T:Thomas C. Neal, 1871
T:Public Domain Courtesy of the Cyber Hymnal™
T:Public Domain Courtesy of the Cyber Hymnal™
C:William Howard Doane
Z:Public Domain
Z:Courtesy of the Cyber Hymnal™
%%score ( 1 2 ) ( 3 4 )
L:1/8
Q:1/4=100
M:4/4
K:Eb
V:1 treble 
V:2 treble 
V:3 bass 
V:4 bass 
V:1
 E>[DF] | [EG]2 [EG]>[EG] [EG]2 [GB]>[Ac] | [GB]4 [EG]2 [GB]2 | [Ac]2 [Ac]>[Ac] [GB]2 [GB]>[EG] | %4
w: 1.~There’s a|book which sur- pass- es the|sag- es, A|vol- ume of wis- dom di-|
w: 2.~’Tis the|light which will guide us to|glo- ry, The|sword of the Spir- it of|
w: 3.~It re-|veals where the foun- tain is|flow- ing, Which|wash- es the soul from its|
 [DF]4 z2 [EG]>[DA] | [EB]2 [EB]>[EB] [EB]2 [Ge][Bd] | [Ac]4 !fermata![Ae]2 ([Ac][Ac]) | %7
w: vine, And the|glo- ry that gleams from its|pag- es, No *|
w: might; And to|dwell on its beau- ti- ful|sto- ry, Is~of *|
w: stain; Age and|sor- row are com- fort- ed|know- ing, With *|
 [GB]2 [EG]>E [EG]2 [DF]>[DF] | E4 z2 ||"^Refrain" (3(B{c'}cd) | [Ge]2 [Ge]>[Af] [Ge]2 [GB]2 | %11
w: splen- dor of earth can out-|shine.|||
w: Hea- ven the sweet- est de-|light.|We’ll * *|cling to the Bi- ble,|
w: earth they shall part with their|pain.|||
 [Ac]>[A=B] [Ac]>[Ad] [Ae]2 [Ac]2 | [GB]2 [EB]>[Ec] [EB]2 [EG]2 | %13
w: ||
w: Light of ev- ery land; When|foes shall as- sault, We’ll|
w: ||
 [DF]<[DF] [DF]>[EG] !fermata![DF]2 E>[EF] | [EG]E[DF][DG] [CA]2 [EA]>[EA] | %15
w: ||
w: ne- ver, ne- ver fail To de-|fend it, heart and hand; By the|
w: ||
 [E=A][EF][EG][EA] !fermata![DB]2 [Ec]>[Fd] | [Ee][Ed][Ee][EB] [Ed][Ec][GB][FA] | %17
w: ||
w: Bi- ble we will stand, Like a|true and val- iant ar- my, At the|
w: ||
 [EG]2 [DF]2 [B,E]2 |] %18
w: |
w: Lord’s com- mand.|
w: |
V:2
 E3/2 x/ | x8 | x8 | x8 | x8 | x8 | x8 | x7/2 E/ x4 | E4 x2 || G2 | x8 | x8 | x8 | x6 E3/2 x/ | %14
 x E x6 | x8 | x8 | x6 |] %18
V:3
 [E,G,]>[E,A,] | [E,B,]2 [E,B,]>[E,B,] [E,B,]2 [E,E]>[E,E] | [E,E]4 [E,B,]2 [E,E]2 | %3
 [A,E]2 [A,E]>[A,E] [E,E]2 [E,E]>[E,B,] | [B,,B,]4 z2 [E,B,]>[F,B,] | %5
 [G,B,]2 [G,B,]>[G,B,] [G,B,]2 [E,B,][E,E] | [A,E]4 !fermata![A,C]2 [A,E]2 | %7
 [B,E]2 [B,,B,]>[B,,G,] [B,,B,]2 [B,,A,]>[B,,A,] | [E,G,]4 z2 || [E,B,]2 | %10
 [E,B,]2 [E,B,]>[E,B,] [E,B,]2 [E,E]2 | [A,E]>[A,E] [A,E]>[A,E] [A,C]2 [A,E]2 | %12
 (EB,) [E,G,]>[E,A,] [E,G,]2 [E,B,]2 | %13
 [B,,B,]<[B,,B,] [B,,B,]>[B,,B,] !fermata![B,,B,]2 [E,G,]>[E,A,] | %14
 [E,A,][E,G,][E,A,][E,B,] [A,,A,]2 [A,C]>[_G,C] | %15
 [F,C][F,=A,][F,B,][F,C] !fermata![B,,B,]2 [A,B,]>[A,B,] | %16
 [G,B,][G,B,][G,B,][G,B,] [A,C][A,C][A,C][A,C] | B,2 [B,,A,]2 [E,G,]2 |] %18
V:4
 x2 | x8 | x8 | x8 | x8 | x8 | x8 | x8 | x6 || x2 | x8 | x8 | E,2 x6 | x8 | x8 | x8 | x8 | %17
 B,2 x4 |] %18

